X:1
T:O I Want to See Him
T:O I Want to See Him
T:Rufus Henry Cornelius
T:Rufus Henry Cornelius, 1916
T:Public Domain Courtesy of the Cyber Hymnal™
T:Public Domain Courtesy of the Cyber Hymnal™
C:Rufus Henry Cornelius
Z:Public Domain
Z:Courtesy of the Cyber Hymnal™
%%score ( 1 2 ) ( 3 4 )
L:1/8
Q:1/4=110
M:12/8
K:Ab
V:1 treble 
V:2 treble 
V:3 bass 
V:4 bass 
V:1
 [CE]2 [=B,F] [CE]2 [B,F] [CA]2 [B,F] [CA]3 | [Ec]2 [DB] [CA]2 [DF] [CE]6 | %2
w: 1.~As I jour- ney thro’ the land,|sing- ing as I go,|
w: 2.~When in ser- vice for my Lord|dark may be the night,|
w: 3.~When in val- leys low I look|tow’rd the mount- ain height,|
w: 4.~When be- fore me bil- lows rise|form the migh- ty deep,|
 [CE]2 [=B,F] [CE]2 [B,F] [CA]2 [B,F] [CA]3 | [Ec]2 [Ec] [=DB]2 [Dc] [EB]6 | %4
w: Point- ing souls to Cal- va- ry—|to the crim- son flow,|
w: But I’ll cling more close to Him,|He will give me light;|
w: And be- hold my Sav- ior there,|lead- ing in the fight,|
w: Then my Lord di- rects my bark;|He doth safe- ly keep,|
 [Ec]2 [Ec] [Ec]2 [EB] [EA]2 [EB] [Ec]3 | [Ec]2 [DB] [CA]2 [DF] [CE]6 | %6
w: Ma- ny ar- rows pierce my soul|from with- out, with- in;|
w: Sa- tan’s snares may vex my soul,|turn my tho’ts a- side;|
w: With a ten- der hand out- stretched|tow’rd the val- ley low,|
w: And He leads me gent- ly on|thro’ this world be- low;|
 [CA]2 [CA] [=DA] z2 [Ec]2 [Ec] [Fc] z2 | c2 [Fc] B2 [EB] [CA]6 || %8
w: But my Lord leads me on,|thro’ Him I must win.|
w: But my Lord goes a- head,|leads what- e’er be- tide.|
w: Guid- ing me, I can see,|as I on- ward go.|
w: He’s a real friend to me,|O I love Him so.|
"^Refrain" [Ec]2 [Ac] [Fc]2 [Ac] [Ec]3 [CA]3 | [FA]2 [FA] [FA]2 [DF] [CE]6 | %10
w: ||
w: O I want to see Him,|look up- on His face,|
w: ||
w: ||
 [Ec]2 [Ac] [Fc]2 [Ac] [Ec]3 [CA]3 | [=DB]2 [Dc] [DB]2 [Dc] [EB]6 | %12
w: ||
w: There to sing for- ev- er|of His sav- ing grace;|
w: ||
w: ||
 [Ec]2 [Ac] [Fc]2 [Ac] [Ec]3 [CA]3 | [FA]2 [FA] [FA]2 [DF] [CE]4 | %14
w: ||
w: On the streets of glo- ry|let me lift my voice,|
w: ||
w: ||
 [CA]2 [CA] [=DA] z2 [Ec]2 [Ec] [Fc] z2 | c2 [Fc] B2 [EB] [CA]6 |] %16
w: ||
w: Cares all past, home at last,|ev- er to re- joice.|
w: ||
w: ||
V:2
 x12 | x12 | x12 | x12 | x12 | x12 | x12 | (EA) (G F) x8 || x12 | x12 | x12 | x12 | x12 | x10 | %14
 x12 | (EA) (G F) x8 |] %16
V:3
 [A,,A,]2 [A,,A,] [A,,A,]2 [A,,A,] [A,,A,]2 [A,,A,] [A,,A,]3 | A,2 [E,G,] [F,A,]2 [D,A,] [A,,A,]6 | %2
 [A,,A,]2 [A,,A,] [A,,A,]2 [A,,A,] [A,,A,]2 [A,,A,] [A,,A,]3 | %3
 [A,,A,]2 [A,,A,] [B,,F,]2 [B,,A,] [E,G,]6 | A,2 A, A,2 [E,G,] [C,A,]2 [E,G,] A,3 | %5
 A,2 [E,G,] [F,A,]2 [D,A,] [A,,A,]6 | [F,A,]2 [F,A,] [_F,A,] z2 [E,A,]2 [E,A,] [=D,A,] z2 | %7
 [E,A,]2 [E,A,] [E,D]2 [E,G,] [A,,A,]6 || [A,,A,]2 [A,,A,] [A,,A,]2 [A,,A,] [A,,A,]3 [A,,A,]3 | %9
 [D,A,]2 [D,D] [D,D]2 [F,A,] A,6 | [A,,A,]2 [A,,A,] [A,,A,]2 [A,,A,] [A,,A,]3 [F,A,]3 | %11
 [B,,A,]2 [B,,A,] [B,,F,]2 [B,,A,] ([E,G,]2 [F,A,][G,B,][F,A,][E,G,]) | %12
 [A,,A,]2 [A,,A,] [A,,A,]2 [A,,A,] [A,,A,]3 [A,,A,]3 | [D,A,]2 [D,D] [D,D]2 [F,A,] A,4 | %14
 [F,A,]2 [F,A,] [_F,A,] z2 [E,A,]2 [E,A,] [=D,A,] z2 | [E,A,]2 [E,A,] [E,D]2 [E,G,] [A,,A,]6 |] %16
V:4
 x12 | A,2 x10 | x12 | x12 | A,2 A, A,2 x2 A,3 x2 | A,2 x10 | x12 | x12 || x12 | x6 A,6 | x12 | %11
 x12 | x12 | x6 A,4 | x12 | x12 |] %16

